X:1
T:Title
%%score { ( 1 3 ) | ( 2 4 ) }
L:1/8
M:4/4
K:Ab
V:1 treble nm="Grand Piano"
V:3 treble 
V:2 bass 
V:4 bass 
V:1
 z4 z2[Q:1/4=100] [Ec]>[DB] | [CA]2 [DF]2 [DF]>[CE] [A,C]>[CE] | [CA]>[CA] [DA]>[DB] [CA]2 [EA]>B | %3
 c2 [EA]2 F>G A>c | B6 c>B | [CA]2 [DF]2 [DF]>[CE] [A,C]>[CE] | %6
 [CA]>[CA] [DA]>[DB] [CA]2 [EA]>[FB] | c>c E>d c2 B2 | %8
[M:11/16] [A,CA]/-[A,CA]/-[A,CA]/-[A,CA]/-[A,CA]/-[A,CA]/-[A,CA]/-[A,CA]-<[A,CA] |[M:5/16] c<cd/ | %10
[M:4/4] e6 z2 | G6 z2 | E>[Bd] [Ad]>[Gd] d2 d2 | c6 z2 | e6 z2 | G6 z2 | %16
 E>[Fd] [Fd]>[Fd] [Ec]2 [DB]2 |[M:3/4] A6 |] %18
V:2
 z4 z2 [A,,A,]>[A,,A,] | [A,,A,]2 [A,,A,]2 [A,,A,]>[A,,A,] [A,,E,]>[A,,A,] | %2
 [A,,E,]>[A,,E,] [A,,F,]>[A,,F,] [A,,E,]2 [C,A,]>[E,G,E] | %3
 [A,E]2 [C,A,]2 [D,A,D]>[D,A,D] [F,A,D]>[A,E] | [E,G,E]6 [E,G,E]>[E,G,D] | %5
 [A,,A,]2 [A,,A,]2 [A,,A,]>[A,,A,] [A,,E,]>[A,,A,] | %6
 [A,,E,]>[A,,E,] [A,,F,]>[A,,F,] [A,,E,]2 [C,A,]>[D,A,] | %7
 [E,A,E]>[E,A,E] [E,A,C]>[E,B,F] [E,A,E]2 [E,G,D]2 | %8
[M:11/16] A,,/-A,,/-A,,/-A,,/-A,,/-A,,/-A,,/-A,,-<A,, |[M:5/16][K:treble] E<EE/ | %10
[M:4/4] A6[K:bass] z2 | D6 z2 | [E,G,D]>[G,E] [F,E]>[E,B,] [F,A,F]2 [G,B,E]2 | %13
 [A,E]>A, [A,,A,]>[A,,A,] [A,,A,]>[K:treble]E E>E | A6[K:bass] z2 | D6 z2 | %16
 [E,G,]>[E,G,] [E,G,]>[E,G,] [E,A,]2 [E,G,]2 |[M:3/4] z z/ A,/ F,>F, E,2 |] %18
V:3
 x8 | x8 | x8 | x8 | x8 | x8 | x8 | x8 |[M:11/16] x11/2 |[M:5/16] x5/2 | %10
[M:4/4] z z/ C/ C>C C>A B>A | z z/ B,/ B,>B, B,2 G>F | x8 | z z/ F/ A>F E>c c>d | %14
 z z/ C/ C>C C>A B>A | z z/ B,/ B,>B, B,2 G>F | x8 |[M:3/4] [A,C]>C D>D C2 |] %18
V:4
 x8 | x8 | x8 | x8 | x8 | x8 | x8 | x8 |[M:11/16] x11/2 |[M:5/16][K:treble] x5/2 | %10
[M:4/4] z z/[K:bass] A,,/ A,,>A,, A,,>C D>C | z z/ E,/ E,>E, E,2 [E,B,D]>[E,A,D] | x8 | %13
 x11/2[K:treble] x5/2 | z z/ A,/[K:bass] A,>A, A,>C D>C | z z/ E,/ E,>E, E,2 [E,B,D]>[E,A,D] | x8 | %17
[M:3/4] A,,6 |] %18

